assets/features/channel/southeast-asia/bigpay.svg

<svg width="80" height="80" viewBox="0 0 80 80" fill="none" xmlns="http://www.w3.org/2000/svg">
<rect width="80" height="80" rx="8" fill="url(#paint0_linear_2497_22822)"/>
<path d="M62.4562 40.8454C62.8409 41.729 63.2228 42.6135 63.6132 43.4948C63.6629 43.6074 63.6535 43.6821 63.5844 43.7805C62.5489 45.2563 61.5158 46.7345 60.488 48.2156C60.4113 48.3263 60.3337 48.3641 60.2017 48.3632C59.2741 48.357 58.347 48.3599 57.4128 48.3599C57.4072 48.2804 57.4654 48.2392 57.499 48.191C58.5164 46.7308 59.5334 45.271 60.558 43.816C60.6474 43.6887 60.6569 43.5951 60.594 43.4532C59.4203 40.7905 58.2529 38.1255 57.0844 35.4609C57.0683 35.424 57.0527 35.3872 57.0366 35.3498C57.0839 35.3119 57.1322 35.3285 57.1758 35.3285C58.074 35.3271 58.9722 35.3299 59.8699 35.3247C59.9868 35.3242 60.0412 35.3559 60.0895 35.4671C60.6257 36.7022 61.1694 37.9334 61.7113 39.1661C61.735 39.2201 61.7615 39.2721 61.7865 39.3256C61.8324 39.3459 61.8589 39.3837 61.8774 39.4277C62.0601 39.8639 62.2612 40.2924 62.4439 40.7285C62.4595 40.7659 62.476 40.8047 62.4571 40.8463L62.4562 40.8454Z" fill="white"/>
<path d="M25.1035 39.7494C25.1035 41.1647 25.1012 42.5804 25.1073 43.9957C25.1078 44.1414 25.0742 44.1821 24.9251 44.1802C24.21 44.1721 23.495 44.1745 22.7804 44.1788C22.6696 44.1792 22.6294 44.1575 22.6299 44.0359C22.6337 41.1812 22.6332 38.327 22.6304 35.4723C22.6304 35.3588 22.6569 35.3228 22.7756 35.3237C23.5025 35.3294 24.2294 35.3304 24.9559 35.3233C25.0884 35.3219 25.1064 35.3687 25.1064 35.485C25.1026 36.9065 25.104 38.3279 25.104 39.7494H25.1035Z" fill="white"/>
<path d="M62.4557 40.8454C62.2324 40.3383 62.009 39.8317 61.7852 39.3246C62.0691 38.9277 62.3564 38.5323 62.637 38.1331C63.2673 37.2362 63.8944 36.3375 64.5219 35.4387C64.5669 35.3744 64.6066 35.3242 64.7017 35.3247C65.7708 35.3285 66.8398 35.3271 67.9089 35.3275C67.9302 35.3275 67.9515 35.3323 67.9998 35.3384C67.7934 35.636 67.6008 35.915 67.4063 36.1932C66.3548 37.6941 65.3009 39.1941 64.2526 40.6973C64.175 40.8085 64.0936 40.8444 63.9616 40.843C63.46 40.8373 62.9578 40.8435 62.4557 40.8454Z" stroke="white"/>
<path d="M35.9968 40.0984C35.9968 39.7687 36.0048 39.439 35.966 39.1093C35.8122 37.8099 35.224 36.7645 34.145 36.011C33.3405 35.4486 32.4305 35.1846 31.458 35.1321C29.7822 35.0413 28.3578 35.5952 27.24 36.8521C26.2992 37.9097 25.9821 39.1623 26.2178 40.5492C26.4373 41.8425 27.0824 42.8675 28.221 43.5501C29.22 44.1494 30.3155 44.3183 31.4589 44.1943C32.2279 44.1111 32.9449 43.875 33.5672 43.2989C33.5672 43.5586 33.5672 43.7795 33.5672 44.0004C33.5672 45.3362 32.7646 46.304 31.4419 46.4885C29.945 46.6976 28.6753 45.7993 28.5854 44.2908C28.5797 44.1967 28.5466 44.1749 28.4586 44.1749C27.7615 44.1778 27.0639 44.1783 26.3668 44.1749C26.2712 44.1749 26.2372 44.1929 26.2405 44.2998C26.2485 44.5482 26.2722 44.7941 26.3171 45.0373C26.541 46.2534 27.141 47.2326 28.2248 47.8551C29.6648 48.6815 31.2081 48.794 32.7731 48.303C34.7247 47.6909 36.0295 46.0292 36.0011 43.9209C35.984 42.6471 35.9987 41.3727 35.9973 40.0989L35.9968 40.0984ZM31.1485 42.053C29.7841 42.0847 28.6583 41.087 28.6204 39.8132C28.5783 38.3946 29.5692 37.3364 30.971 37.3038C32.4631 37.2693 33.4872 38.2111 33.5265 39.6533C33.5625 40.9711 32.5223 42.0213 31.1485 42.053Z" fill="white"/>
<path d="M45.3973 36.2896C43.5725 34.73 40.5944 34.7248 38.7364 36.264C37.6943 37.1278 37.0597 38.2191 37.0488 39.5885C37.0261 42.4611 37.0427 45.3338 37.0394 48.207C37.0394 48.3323 37.0753 48.364 37.1979 48.3631C37.9011 48.3574 38.6044 48.356 39.3076 48.364C39.4609 48.3659 39.513 48.3366 39.5125 48.1677C39.505 46.681 39.5083 45.1948 39.5083 43.708C39.5083 43.6447 39.5083 43.5813 39.5083 43.4933C40.6743 44.2345 41.9123 44.3934 43.2066 44.1025C45.2861 43.6352 46.8586 41.8448 46.8885 39.7588C46.9079 38.3841 46.4578 37.1964 45.3978 36.2901L45.3973 36.2896ZM41.9582 42.0529C40.5712 42.0482 39.4998 41.0004 39.5083 39.6575C39.5173 38.2905 40.5679 37.299 42.0023 37.3038C43.4116 37.3085 44.4224 38.3037 44.4196 39.6845C44.4167 41.0463 43.3657 42.0577 41.9582 42.0529Z" fill="white"/>
<path d="M21.8108 38.994C21.6446 37.7783 21.1184 36.7665 20.1199 36.0258C19.3584 35.461 18.4886 35.189 17.5511 35.1346C16.4253 35.0688 15.3643 35.2453 14.4689 36.0546V35.8351C14.4689 34.4785 14.467 33.1223 14.4722 31.7657C14.4727 31.6352 14.4433 31.5992 14.3089 31.6006C13.6 31.6082 12.8906 31.6087 12.1817 31.6002C12.0298 31.5983 12 31.6437 12 31.7875C12.0047 34.3234 12.0028 36.8597 12.0038 39.3956C12.0038 39.6137 12.0028 39.8322 12.0194 40.0493C12.1207 41.3922 12.6786 42.4996 13.7855 43.2867C15.0079 44.1561 16.3869 44.386 17.8464 44.1433C20.046 43.7777 22.1908 41.7707 21.8108 38.994ZM16.6326 42.0303C15.6217 41.914 14.901 41.3776 14.5886 40.3989C14.1026 38.8753 15.1456 37.2963 16.9326 37.3034C18.1242 37.3034 19.0451 37.9685 19.3049 39.0602C19.7214 40.8095 18.3859 42.2323 16.6321 42.0299L16.6326 42.0303Z" fill="white"/>
<path d="M57.3434 39.6169C57.3188 37.9926 56.6444 36.7083 55.2375 35.8469C54.4978 35.3942 53.6801 35.1804 52.8192 35.1327C51.1506 35.04 49.728 35.5835 48.6083 36.8299C47.6533 37.8932 47.3296 39.1548 47.5677 40.5573C47.7532 41.6505 48.2553 42.5681 49.1379 43.2573C49.8288 43.7971 50.6234 44.0918 51.4918 44.1868C52.7284 44.3221 53.8921 44.1589 54.9176 43.3061C54.9176 43.5525 54.9242 43.7696 54.9147 43.9863C54.9095 44.1074 54.9417 44.1457 55.069 44.1447C55.7784 44.1381 56.4878 44.1381 57.1972 44.1447C57.3235 44.1462 57.351 44.1111 57.351 43.9886C57.3463 42.5312 57.3652 41.0739 57.3434 39.6169ZM52.4231 42.053C51.0332 42.0516 49.9613 41.0114 49.9661 39.6685C49.9708 38.3038 51.0133 37.3024 52.4288 37.3034C53.8523 37.3043 54.8707 38.2849 54.8717 39.6557C54.8726 41.0412 53.8381 42.0535 52.4236 42.0525L52.4231 42.053Z" fill="white"/>
<defs>
<linearGradient id="paint0_linear_2497_22822" x1="0" y1="0" x2="80" y2="80" gradientUnits="userSpaceOnUse">
<stop stop-color="#5A7FE8"/>
<stop offset="1" stop-color="#19F2E0"/>
</linearGradient>
</defs>
</svg>

<svg xmlns="http://www.w3.org/2000/svg" width="80" height="80" fill="none" viewBox="0 0 80 80"><rect width="80" height="80" fill="url(#a)" rx="8"/><path fill="#fff" d="M62.456 40.845c.385.884.767 1.769 1.157 2.65.05.112.04.187-.029.286a1043 1043 0 0 0-3.096 4.435c-.077.11-.154.148-.286.147-.928-.006-1.855-.003-2.79-.003-.005-.08.053-.12.087-.169 1.017-1.46 2.034-2.92 3.059-4.375.09-.127.099-.22.036-.363-1.174-2.663-2.341-5.328-3.51-7.992l-.047-.111c.047-.038.095-.022.139-.022.898 0 1.796.002 2.694-.003.117 0 .171.03.22.142.536 1.235 1.08 2.466 1.621 3.7l.075.159c.046.02.073.058.091.102.183.436.384.864.567 1.3.015.038.032.077.013.118M25.104 39.75c0 1.415-.003 2.83.003 4.246 0 .145-.033.186-.182.184-.715-.008-1.43-.005-2.145-.001-.11 0-.15-.022-.15-.143q.005-4.282 0-8.564c0-.113.027-.15.146-.148q1.09.008 2.18 0c.132-.002.15.045.15.161q-.003 2.133-.002 4.264"/><path stroke="#fff" d="m62.456 40.845-.67-1.52c.283-.397.57-.793.851-1.192q.944-1.346 1.885-2.694c.045-.065.085-.115.18-.114q1.604.003 3.207.002c.021 0 .042.005.09.011-.206.298-.398.577-.593.855-1.051 1.501-2.105 3.001-3.153 4.504-.078.111-.16.147-.291.146-.502-.006-1.004 0-1.506.002Z"/><path fill="#fff" d="M35.997 40.098c0-.33.008-.659-.031-.989-.154-1.3-.742-2.345-1.821-3.098-.805-.562-1.715-.826-2.687-.879-1.676-.09-3.1.463-4.218 1.72-.94 1.058-1.258 2.31-1.022 3.697.22 1.294.864 2.319 2.003 3.001.999.6 2.095.768 3.238.644.769-.083 1.486-.319 2.108-.895V44c0 1.336-.802 2.304-2.125 2.489-1.497.209-2.767-.69-2.857-2.198-.005-.094-.038-.116-.126-.116q-1.046.005-2.092 0c-.096 0-.13.018-.127.125.009.248.032.494.077.737.224 1.216.824 2.196 1.908 2.818 1.44.827 2.983.939 4.548.448 1.952-.612 3.256-2.274 3.228-4.382-.017-1.274-.002-2.548-.004-3.822m-4.849 1.955c-1.364.032-2.49-.966-2.528-2.24-.042-1.418.95-2.477 2.351-2.51 1.492-.034 2.516.908 2.555 2.35.036 1.318-1.004 2.368-2.378 2.4m14.249-5.764c-1.825-1.56-4.803-1.565-6.66-.026-1.043.864-1.677 1.955-1.688 3.325-.023 2.872-.006 5.745-.01 8.618 0 .125.036.157.159.156q1.054-.01 2.11.001c.153.002.205-.027.205-.196-.008-1.487-.005-2.973-.005-4.46v-.215c1.166.741 2.404.9 3.699.61 2.08-.468 3.652-2.258 3.682-4.344.019-1.375-.431-2.563-1.491-3.469m-3.439 5.763c-1.387-.005-2.458-1.053-2.45-2.395.01-1.367 1.06-2.359 2.494-2.354 1.41.005 2.42 1 2.418 2.38-.003 1.362-1.054 2.374-2.462 2.369M21.81 38.994c-.165-1.216-.692-2.227-1.69-2.968-.762-.565-1.631-.837-2.569-.891-1.126-.066-2.187.11-3.082.92v-.22c0-1.357-.002-2.713.003-4.07 0-.13-.029-.166-.163-.164q-1.063.011-2.127 0c-.152-.003-.182.043-.182.187.005 2.535.003 5.072.004 7.608 0 .218-.001.436.015.653.102 1.343.66 2.45 1.767 3.238 1.222.87 2.6 1.099 4.06.856 2.2-.365 4.345-2.372 3.965-5.149m-5.177 3.036c-1.011-.116-1.732-.652-2.044-1.631-.486-1.524.557-3.103 2.344-3.096 1.191 0 2.112.666 2.372 1.757.416 1.75-.92 3.172-2.673 2.97m40.71-2.413c-.024-1.624-.699-2.909-2.106-3.77-.74-.453-1.557-.667-2.418-.714-1.668-.093-3.091.45-4.21 1.697-.956 1.063-1.28 2.325-1.041 3.727.185 1.093.687 2.011 1.57 2.7.69.54 1.485.835 2.354.93 1.236.135 2.4-.028 3.426-.88 0 .245.006.463-.003.68-.005.12.027.159.154.158q1.065-.01 2.128 0c.127.001.154-.034.154-.156-.005-1.458.014-2.915-.008-4.372m-4.92 2.436c-1.39-.001-2.462-1.042-2.457-2.384.005-1.365 1.047-2.367 2.463-2.366 1.423.001 2.442.982 2.443 2.353 0 1.385-1.034 2.398-2.448 2.397"/><defs><linearGradient id="a" x1="0" x2="80" y1="0" y2="80" gradientUnits="userSpaceOnUse"><stop stop-color="#5a7fe8"/><stop offset="1" stop-color="#19f2e0"/></linearGradient></defs></svg>
